X:142
T:Paddy's Vision* (r)
B:NFID.077c ("Paddy Ryan's Dreams?" - otherwise untitled)
142paddys_v
S:JD
N:1:Key signature in source is C (no flats or sharps) but result doesn't
sound right, so I've changed it to F.
N:2:Part 2 resembles Part 2 of "Paddy Ryan's Dream" but the first part
doesn't even come close (for one thing, it's in a major key)
L:1/8
M:C
R:reel
Q:360
K:F
cF (3FFF cFdF|cFEF CFAc|(3BcB GB DGBG|1 DGBd cBAB:|2 DGBd cBAG||
Fffe fdcA|Fffe fd^ce|dg^fg bgaf|dg^fg bgaf|
d^cde fdcA|Fffe fde^f|(3gag dg (3gag dg|bgag fafd||

%%%

